icon-themes/sifr_svg/cmd/sc_rotateflipmenu.svg

<svg viewBox="0 0 16 16" xmlns="http://www.w3.org/2000/svg"><g fill="#555753"><path d="m1 1v14h7l-5.5195312-14zm9 0c-.26529 0-.53057 0-.71875.28125l-2 2-.28125.28125v.875l.28125.28125 2 2c.18817.18125.45344.28125.71875.28125h1v-1c0-.2653-.1-.53058-.28125-.71875l-.28125-.28125h.5625c1.1 0 2 .9 2 2 0 1.10457-.9 2-2 2v2c2.2 0 4-1.8 4-4s-1.8-4-4-4h-.5625l.28125-.28125c.18125-.18818.28125-.45344.28125-.71875v-1z"/><path d="m15 13.519531-14-5.519531v7h14z" opacity=".35"/></g></svg>

<svg xmlns="http://www.w3.org/2000/svg" viewBox="0 0 16 16">
 <path
   style="fill:#555753"
   d="M 1 1 L 1 15 L 8 15 L 2.4804688 1 L 1 1 z M 10 1 C 9.73471 1 9.46943 1 9.28125 1.28125 L 7.28125 3.28125 L 7 3.5625 L 7 4.4375 L 7.28125 4.71875 L 9.28125 6.71875 C 9.46942 6.9 9.73469 7 10 7 L 11 7 L 11 6 C 11 5.7347 10.9 5.46942 10.71875 5.28125 L 10.4375 5 L 11 5 C 12.1 5 13 5.9 13 7 C 13 8.10457 12.1 9 11 9 L 11 11 C 13.2 11 15 9.2 15 7 C 15 4.8 13.2 3 11 3 L 10.4375 3 L 10.71875 2.71875 C 10.9 2.53057 11 2.26531 11 2 L 11 1 L 10 1 z "
   />
<path
   style="fill:#555753;opacity:0.35"
   d="M 15,13.519531 1,8 v 7 h 14 z"
   />
</svg>
